packages/core/src/svgs/tokens/branded/BONK.svg

<svg width="24" height="24" viewBox="0 0 24 24" fill="none" xmlns="http://www.w3.org/2000/svg">
<path d="M12 22C17.3651 22 21.7143 17.6507 21.7143 12.2856C21.7143 6.9206 17.3651 2.57135 12 2.57135C6.6349 2.57135 2.28564 6.9206 2.28564 12.2856C2.28564 17.6507 6.6349 22 12 22Z" fill="#FFDD02"/>
<path d="M13.0162 19.3144C7.78189 13.48 9.04476 10.3429 6.48475 7.66284C6.27903 8.89142 6.28475 8.62285 6.28475 10.2114C6.28475 11.6514 6.33045 11.5486 5.91902 12.7372C5.46187 14.0572 4.85044 16.0229 5.30187 17.52C5.53045 18.2857 6.09045 18.6457 6.86188 18.8629C7.61618 19.0744 8.15904 19.4457 8.85047 19.72C9.59907 20.0172 10.0161 20.36 11.1591 20.2687C11.7876 20.2229 12.7934 19.7087 13.0162 19.3087V19.3144Z" fill="#3A2A0C"/>
<path d="M6.48536 7.66283C6.59964 7.78853 6.55964 7.69711 6.55394 8.18853C6.55394 8.83997 6.65679 9.29141 6.75394 9.91432C6.8225 10.3143 6.85679 10.4686 6.85679 10.5829C6.85679 10.7657 6.75394 10.8857 6.39964 11.8914C6.11393 12.7257 5.71964 13.9086 5.71393 14.9886C5.70821 16.0572 6.07964 17.0344 7.15965 17.4857C7.52537 17.6344 7.74822 17.7029 8.15965 17.76C8.80538 17.8572 8.79966 17.6914 9.24538 18.0172C9.95396 18.5486 10.9368 19.1029 11.8912 19.2686C12.2454 19.3257 12.8054 19.2686 13.0168 19.3086C13.5082 19.0686 13.9597 18.9544 14.2854 18.5714C13.0168 14.5714 8.66251 9.65712 6.99965 7.14282H6.78822L6.48536 7.66283Z" fill="#895729"/>
<path d="M14.2852 18.5715C10.971 16.7829 10.0909 13.4744 8.7423 10.1371L8.79945 10.0743C8.41087 10.1886 8.74802 10.1314 8.39944 10.3371C7.58801 10.8286 8.18802 10.8057 7.91944 11.3657C7.33087 12.5944 6.79373 13.68 6.85658 15.0914C6.94801 17.1429 11.611 19.1144 13.3823 18.96C13.6795 18.9372 14.068 18.6915 14.2852 18.5715Z" fill="#A86617"/>
<path d="M8.74238 10.1371C8.9481 10.1943 8.81667 11.1657 8.81667 11.4686C8.75952 12.5714 8.30809 12.6114 8.89095 12.6514C11.9996 16 16.9711 11.5829 17.5424 12.1771C17.0853 11.0514 16.6624 10.0457 15.9024 9.10855C15.3311 8.39997 12.8681 7.56569 12.6453 7.16569C12.3881 6.69711 11.5538 4.68567 10.7481 4.86853C10.5366 4.91425 10.5996 4.9371 10.5196 5.05139C10.9424 6.30853 11.091 8.22284 9.38809 8.28569C8.85667 7.66854 8.37667 7.03997 7.64524 6.64568C7.54925 6.5981 7.44378 6.57271 7.33666 6.5714C7.11952 6.5714 6.90237 6.91426 6.78809 7.14283H6.99951C7.73667 8.25712 8.32524 8.39997 8.74238 10.1371Z" fill="#F59935"/>
<path d="M14.285 18.5715C14.9307 18.3315 15.4793 17.2 15.8278 16.64C11.9935 17.4287 8.99922 12.8344 8.74207 12.5944C8.83922 12.1486 9.00494 10.2057 8.74207 10.1371C8.21636 10.5199 8.48494 10.5657 8.39922 11.28C8.35921 11.5772 8.29636 11.5486 8.18207 11.7772C7.92493 12.28 7.42206 13.64 7.42778 14.64C7.44493 16.7887 10.8907 18.4972 12.685 18.5715C13.2678 18.5944 13.8621 18.4744 14.285 18.5715Z" fill="#DA8515"/>
<path d="M15.8278 16.6345C16.1936 16.463 16.405 16.4745 16.605 16.143C14.4164 16.3488 9.59927 15.5773 8.2278 13.2001C8.0678 13.3773 7.98208 13.6345 7.99923 13.8858C8.08495 15.0688 9.32496 16.3316 10.4163 16.5888C11.4335 16.823 12.3193 16.8573 13.2221 16.8573C14.0393 16.8573 14.8736 16.8345 15.8221 16.6345H15.8278Z" fill="#727070"/>
<path d="M8.22804 13.2C7.72518 15.9257 12.0338 16.2857 13.7881 16.2857C14.7481 16.2857 15.6623 16.2286 16.6053 16.1429C17.211 15.8457 17.5423 14.7772 17.6053 14.2C15.5366 16.0914 10.308 15.2686 8.89089 12.6514L8.73089 12.64C8.71947 12.6514 8.69661 12.6514 8.69089 12.6686L8.57089 12.7544C8.38804 12.8744 8.34232 12.9372 8.22804 13.2Z" fill="#B0B0B0"/>
<path d="M8.91963 9.87996C10.2397 9.76569 9.61672 9.10288 9.15963 8.78288L8.06247 7.71429C7.83391 7.74857 7.61677 7.76572 7.43391 7.88C7.41677 8.65715 7.51962 9.48573 7.90247 9.98863C8.57677 10.0286 8.52534 9.95436 8.91963 9.87996Z" fill="#ECB595"/>
<path d="M8.89178 12.6514C8.53177 12.9143 8.28034 13.1257 8.6232 13.7486C9.13178 14.6857 10.0118 15.0457 10.9775 15.3886C11.7204 15.6171 14.0004 15.7143 15.4347 15.7143H16.2632C16.7947 15.3086 17.1375 14.6286 17.6062 14.1943C17.7375 14.0686 17.7147 13.4057 17.7147 13.1886C17.7147 12.6286 17.6347 12.6229 17.5432 12.1771C17.3947 11.8799 17.1547 11.7256 16.8575 11.7256C16.4119 11.7256 16.1262 11.7486 15.6689 11.8799C14.4975 12.2114 12.9032 13.4571 11.7147 13.4286C10.7204 13.4057 9.98318 12.6171 8.89178 12.6514Z" fill="#F4F4F4"/>
<path d="M9.97119 8.30854C9.99399 8.55999 10.1197 8.41141 10.7197 8.50284C11.0055 8.54855 11.274 8.56569 11.6055 8.56569C11.8797 7.90284 11.434 8.46855 12.2112 8.06854C11.9997 7.91998 11.7768 8.10854 11.4855 7.93141C11.1425 7.72569 11.0855 6.1371 11.114 5.87425C11.1025 5.86282 11.0797 5.83425 11.074 5.84568L10.9425 5.72568C10.8683 5.63425 10.8683 5.59997 10.8168 5.48567C10.794 5.42853 10.7312 5.27425 10.7025 5.23995L10.5255 5.05139C9.91972 6.03425 10.0683 7.07996 9.97119 8.30854Z" fill="#985B17"/>
<path d="M15.9705 14C17.2733 12.5371 16.2218 11.9829 15.0105 12.4399C14.5418 12.6171 14.0161 13.0286 14.4447 13.4914C14.6505 13.7144 15.4733 14.0286 15.9705 14Z" fill="#2C2B2A"/>
<path d="M10.8739 5.8171C10.8282 6.11425 10.8167 7.98284 11.4282 8.27426C12.5654 8.36569 12.8225 8.01141 12.3368 7.2114C11.9694 6.58235 11.5487 5.98588 11.0797 5.42853C10.9654 5.6114 11.0567 5.62282 10.8739 5.8171Z" fill="#ECB595"/>
<path d="M13.7197 9.81716C13.5825 10.5772 15.2912 10.8744 15.4168 10.1829C15.5883 9.27431 13.834 9.22859 13.7197 9.81716Z" fill="#E8E8E8"/>
<path d="M10.8564 12.3772C11.1479 13.223 12.5479 12.7944 12.5709 12.2687C12.5879 11.8687 11.7879 11.4857 11.5822 11.88C11.2679 12.4744 11.1651 12.0972 10.8564 12.3772ZM13.7137 11.8287C13.8451 12.2 14.0509 12.32 14.5994 12.28C14.7879 12.263 14.9422 12.223 15.1137 12.1087C15.3422 11.9715 15.3594 11.9372 15.4279 11.6115C15.1994 11.0972 14.7022 11.0972 14.5365 11.1829C14.1137 11.3829 14.6794 11.2857 14.2165 11.6115C14.0909 11.6972 13.8794 11.6572 13.7137 11.823V11.8287Z" fill="#131011"/>
<path d="M10.731 10.6457C10.2166 10.2971 9.38231 11.3086 9.85658 11.6229C10.4738 12.0399 11.1366 10.9143 10.731 10.6457Z" fill="#E8E8E8"/>
<path d="M14.2857 2.94858C14.2857 4.24001 14.2857 5.42859 13.9485 5.42859C13.5314 5.42859 13.3942 4.90288 13.2057 3.64573C13.017 2.40572 13.2627 2 13.6342 2C13.9999 2 14.2857 2.30287 14.2857 2.94858Z" fill="url(#paint0_linear_364_6161)"/>
<path d="M13.7145 7.14287C14.0301 7.14287 14.286 6.88703 14.286 6.57144C14.286 6.25584 14.0301 6 13.7145 6C13.3989 6 13.1431 6.25584 13.1431 6.57144C13.1431 6.88703 13.3989 7.14287 13.7145 7.14287Z" fill="url(#paint1_linear_364_6161)"/>
<path d="M17.56 3.85138C17.0114 5.05139 16.5142 6.15425 16.2228 5.98282C15.8628 5.76567 15.9714 5.20567 16.337 3.93709C16.7028 2.68565 17.0857 2.43993 17.4 2.62851C17.72 2.81708 17.8342 3.25138 17.56 3.85138Z" fill="url(#paint2_linear_364_6161)"/>
<path d="M15.9365 7.40566C15.902 7.47244 15.8546 7.53178 15.7973 7.58027C15.7398 7.62876 15.6733 7.66547 15.6017 7.68829C15.457 7.73437 15.3 7.72109 15.1652 7.65138C15.0302 7.58166 14.9286 7.46122 14.8825 7.31655C14.8364 7.17187 14.8497 7.01483 14.9194 6.87995C14.9892 6.74505 15.1096 6.6434 15.2542 6.59732C15.3989 6.55124 15.556 6.56451 15.6909 6.63423C15.8257 6.70395 15.9274 6.82439 15.9734 6.96905C16.0196 7.11372 16.0062 7.27078 15.9365 7.40566Z" fill="url(#paint3_linear_364_6161)"/>
<path d="M20.0513 6.07998C18.9713 6.74285 17.9826 7.35428 17.7883 7.07428C17.5426 6.7257 17.9026 6.34285 18.8455 5.53141C19.7713 4.74284 20.2513 4.74284 20.4626 5.04569C20.6798 5.35427 20.5884 5.74855 20.0513 6.07998Z" fill="url(#paint4_linear_364_6161)"/>
<path d="M17.4569 8.19431C17.3939 8.23558 17.3234 8.26403 17.2493 8.27804C17.1753 8.29206 17.0993 8.29134 17.0254 8.27595C16.9517 8.26056 16.8817 8.2308 16.8194 8.18836C16.7571 8.14592 16.7039 8.09163 16.6626 8.02859C16.6214 7.96556 16.5929 7.89501 16.5789 7.82097C16.5649 7.74695 16.5655 7.67088 16.581 7.59713C16.5963 7.52337 16.6262 7.45337 16.6686 7.39112C16.711 7.32886 16.7653 7.27557 16.8283 7.2343C16.9557 7.15094 17.1109 7.12158 17.2598 7.15266C17.4087 7.18373 17.5393 7.27272 17.6226 7.40002C17.7059 7.52732 17.7354 7.68252 17.7043 7.83148C17.6733 7.98044 17.5842 8.11095 17.4569 8.19431Z" fill="url(#paint5_linear_364_6161)"/>
<path d="M12.103 8.1543C12.1088 8.00573 12.183 7.86858 12.3202 7.81145C12.4573 7.7543 12.6117 7.80002 12.703 7.92002C12.9088 8.17716 13.1373 8.36573 13.4573 8.42859C13.6002 8.45716 13.7145 8.56573 13.7145 8.71431C13.7145 8.85145 13.6002 8.97146 13.4573 8.94859C13.3842 8.93976 13.3117 8.9264 13.2402 8.90859C12.8973 8.81716 12.4173 8.94859 12.183 9.22288C11.783 9.69143 11.1545 9.99997 10.5602 9.99997C10.0002 9.99997 9.58302 9.81143 9.33162 9.62863C9.21733 9.54289 9.23448 9.37717 9.34301 9.28574C9.45168 9.19431 9.61728 9.20574 9.74302 9.28003C9.91449 9.37717 10.1888 9.48574 10.5602 9.48574C11.2688 9.48574 12.0573 8.88573 12.103 8.1543Z" fill="#FCDCA3" fill-opacity="0.62"/>
<defs>
<linearGradient id="paint0_linear_364_6161" x1="3.29158" y1="15.2667" x2="20.4585" y2="5.3676" gradientUnits="userSpaceOnUse">
<stop offset="0.07" stop-color="#6C1A1C"/>
<stop offset="0.47" stop-color="#DE1A26"/>
</linearGradient>
<linearGradient id="paint1_linear_364_6161" x1="3.25733" y1="15.3" x2="16.0403" y2="3.2704" gradientUnits="userSpaceOnUse">
<stop offset="0.07" stop-color="#6C1A1C"/>
<stop offset="0.47" stop-color="#DE1A26"/>
</linearGradient>
<linearGradient id="paint2_linear_364_6161" x1="2.98113" y1="13.3634" x2="15.2946" y2="19.24" gradientUnits="userSpaceOnUse">
<stop offset="0.07" stop-color="#6C1A1C"/>
<stop offset="0.47" stop-color="#DE1A26"/>
</linearGradient>
<linearGradient id="paint3_linear_364_6161" x1="2.78779" y1="10.7023" x2="19.4425" y2="5.97169" gradientUnits="userSpaceOnUse">
<stop offset="0.07" stop-color="#6C1A1C"/>
<stop offset="0.47" stop-color="#DE1A26"/>
</linearGradient>
<linearGradient id="paint4_linear_364_6161" x1="6.36804" y1="10.6902" x2="14.383" y2="17.2977" gradientUnits="userSpaceOnUse">
<stop offset="0.07" stop-color="#6C1A1C"/>
<stop offset="0.47" stop-color="#DE1A26"/>
</linearGradient>
<linearGradient id="paint5_linear_364_6161" x1="4.5498" y1="6.22339" x2="21.4324" y2="9.99357" gradientUnits="userSpaceOnUse">
<stop offset="0.07" stop-color="#6C1A1C"/>
<stop offset="0.47" stop-color="#DE1A26"/>
</linearGradient>
</defs>
</svg>

<svg xmlns="http://www.w3.org/2000/svg" width="24" height="24" fill="none" viewBox="0 0 24 24">
    <path fill="#FFDD02" d="M12 22c5.365 0 9.714-4.35 9.714-9.714S17.365 2.57 12 2.57s-9.714 4.35-9.714 9.715S6.635 22 12 22"/>
    <path fill="#3A2A0C" d="M13.016 19.314C7.782 13.48 9.045 10.343 6.485 7.663c-.206 1.228-.2.96-.2 2.548 0 1.44.045 1.338-.366 2.526-.457 1.32-1.069 3.286-.617 4.783.228.766.788 1.126 1.56 1.343.754.211 1.297.583 1.988.857.75.297 1.166.64 2.31.549.628-.046 1.633-.56 1.856-.96z"/>
    <path fill="#895729" d="M6.485 7.663c.115.126.075.034.069.526 0 .651.103 1.102.2 1.725.069.4.103.555.103.669 0 .183-.103.303-.457 1.308-.286.835-.68 2.018-.686 3.098-.006 1.068.366 2.045 1.446 2.497.365.148.588.217 1 .274.645.097.64-.069 1.085.257.709.532 1.692 1.086 2.646 1.252.354.057.914 0 1.126.04.491-.24.943-.355 1.268-.738-1.268-4-5.622-8.914-7.285-11.428h-.212z"/>
    <path fill="#A86617" d="M14.285 18.572c-3.314-1.79-4.194-5.098-5.543-8.435l.057-.063c-.388.115-.051.057-.4.263-.811.492-.211.469-.48 1.029-.588 1.228-1.125 2.314-1.062 3.725.091 2.052 4.754 4.023 6.525 3.869.298-.023.686-.268.903-.389"/>
    <path fill="#F59935" d="M8.742 10.137c.206.057.075 1.029.075 1.332-.057 1.102-.509 1.142.074 1.182 3.109 3.349 8.08-1.068 8.651-.474-.457-1.126-.88-2.131-1.64-3.068-.57-.709-3.034-1.543-3.257-1.943-.257-.469-1.091-2.48-1.897-2.297-.211.045-.148.068-.228.182.422 1.258.571 3.172-1.132 3.235-.531-.617-1.011-1.246-1.743-1.64a.7.7 0 0 0-.308-.075c-.217 0-.435.343-.549.572H7c.737 1.114 1.325 1.257 1.742 2.994"/>
    <path fill="#DA8515" d="M14.285 18.572c.646-.24 1.194-1.372 1.543-1.932-3.835.789-6.829-3.806-7.086-4.046.097-.445.263-2.388 0-2.457-.526.383-.257.429-.343 1.143-.04.297-.103.269-.217.497-.257.503-.76 1.863-.754 2.863.017 2.149 3.463 3.857 5.257 3.932.583.022 1.177-.098 1.6 0"/>
    <path fill="#727070" d="M15.828 16.635c.366-.172.577-.16.777-.492-2.189.206-7.006-.566-8.377-2.943a.95.95 0 0 0-.229.686c.086 1.183 1.326 2.446 2.417 2.703 1.018.234 1.903.268 2.806.268.817 0 1.652-.023 2.6-.223z"/>
    <path fill="#B0B0B0" d="M8.228 13.2c-.503 2.726 3.806 3.086 5.56 3.086.96 0 1.874-.057 2.817-.143.606-.297.937-1.366 1-1.943-2.068 1.891-7.297 1.069-8.714-1.549l-.16-.011c-.012.011-.034.011-.04.029l-.12.085c-.183.12-.229.183-.343.446"/>
    <path fill="#ECB595" d="M8.92 9.88c1.32-.114.697-.777.24-1.097L8.062 7.714c-.228.035-.445.052-.628.166-.017.777.086 1.606.468 2.109.675.04.623-.035 1.018-.109"/>
    <path fill="#F4F4F4" d="M8.892 12.651c-.36.263-.612.475-.269 1.098.509.937 1.389 1.297 2.355 1.64.742.228 3.022.325 4.457.325h.828c.532-.405.874-1.085 1.343-1.52.131-.125.109-.788.109-1.005 0-.56-.08-.566-.172-1.012-.148-.297-.388-.451-.685-.451-.446 0-.732.023-1.19.154-1.17.331-2.765 1.577-3.953 1.549-.995-.023-1.732-.812-2.823-.778"/>
    <path fill="#985B17" d="M9.971 8.309c.023.251.149.102.749.194.285.046.554.063.885.063.275-.663-.171-.097.606-.497-.211-.149-.434.04-.726-.138-.342-.205-.4-1.794-.371-2.057-.012-.011-.034-.04-.04-.028l-.131-.12c-.075-.092-.075-.126-.126-.24a1.6 1.6 0 0 0-.114-.246l-.178-.189c-.605.983-.457 2.029-.554 3.258"/>
    <path fill="#2C2B2A" d="M15.97 14c1.303-1.463.252-2.017-.96-1.56-.468.177-.994.589-.565 1.051.205.223 1.028.538 1.525.509"/>
    <path fill="#ECB595" d="M10.874 5.817c-.046.297-.057 2.166.554 2.457 1.137.092 1.394-.263.909-1.063A13 13 0 0 0 11.08 5.43c-.115.182-.023.194-.206.388"/>
    <path fill="#E8E8E8" d="M13.72 9.817c-.138.76 1.571 1.057 1.697.366.171-.909-1.583-.954-1.697-.366"/>
    <path fill="#131011" d="M10.856 12.377c.292.846 1.692.417 1.715-.108.017-.4-.783-.783-.989-.389-.314.594-.417.217-.726.497m2.858-.548c.131.371.337.491.885.451a1 1 0 0 0 .515-.171c.228-.137.245-.172.314-.498-.229-.514-.726-.514-.892-.428-.422.2.143.103-.32.428-.125.086-.337.046-.502.212z"/>
    <path fill="#E8E8E8" d="M10.731 10.646c-.514-.349-1.349.663-.874.977.617.417 1.28-.709.874-.977"/>
    <path fill="url(#BONK__a)" d="M14.286 2.949c0 1.291 0 2.48-.338 2.48-.417 0-.554-.526-.742-1.783-.189-1.24.057-1.646.428-1.646.366 0 .652.303.652.949"/>
    <path fill="url(#BONK__b)" d="M13.715 7.143a.571.571 0 1 0 0-1.143.571.571 0 0 0 0 1.143"/>
    <path fill="url(#BONK__c)" d="M17.56 3.851c-.549 1.2-1.046 2.303-1.337 2.132-.36-.217-.252-.777.114-2.046.366-1.251.749-1.497 1.063-1.308.32.188.434.622.16 1.222"/>
    <path fill="url(#BONK__d)" d="M15.937 7.406a.574.574 0 0 1-.772.245.572.572 0 1 1 .772-.245"/>
    <path fill="url(#BONK__e)" d="M20.051 6.08c-1.08.663-2.068 1.274-2.263.994-.245-.348.115-.731 1.058-1.543.925-.788 1.405-.788 1.617-.485.217.308.125.703-.412 1.034"/>
    <path fill="url(#BONK__f)" d="M17.457 8.194a.573.573 0 1 1-.628-.958.573.573 0 0 1 .628.958"/>
    <path fill="#FCDCA3" fill-opacity=".62" d="M12.103 8.154c.006-.148.08-.285.217-.343a.32.32 0 0 1 .383.109c.206.257.434.446.754.509.143.028.257.137.257.285 0 .137-.114.257-.257.235a2 2 0 0 1-.217-.04c-.343-.092-.823.04-1.057.314-.4.468-1.028.777-1.623.777a2.1 2.1 0 0 1-1.228-.371c-.115-.086-.098-.252.011-.343s.274-.08.4-.006c.171.097.446.206.817.206.709 0 1.497-.6 1.543-1.332"/>
    <defs>
        <linearGradient id="BONK__a" x1="3.292" x2="20.459" y1="15.267" y2="5.368" gradientUnits="userSpaceOnUse">
            <stop offset=".07" stop-color="#6C1A1C"/>
            <stop offset=".47" stop-color="#DE1A26"/>
        </linearGradient>
        <linearGradient id="BONK__b" x1="3.257" x2="16.04" y1="15.3" y2="3.27" gradientUnits="userSpaceOnUse">
            <stop offset=".07" stop-color="#6C1A1C"/>
            <stop offset=".47" stop-color="#DE1A26"/>
        </linearGradient>
        <linearGradient id="BONK__c" x1="2.981" x2="15.295" y1="13.363" y2="19.24" gradientUnits="userSpaceOnUse">
            <stop offset=".07" stop-color="#6C1A1C"/>
            <stop offset=".47" stop-color="#DE1A26"/>
        </linearGradient>
        <linearGradient id="BONK__d" x1="2.788" x2="19.442" y1="10.702" y2="5.972" gradientUnits="userSpaceOnUse">
            <stop offset=".07" stop-color="#6C1A1C"/>
            <stop offset=".47" stop-color="#DE1A26"/>
        </linearGradient>
        <linearGradient id="BONK__e" x1="6.368" x2="14.383" y1="10.69" y2="17.298" gradientUnits="userSpaceOnUse">
            <stop offset=".07" stop-color="#6C1A1C"/>
            <stop offset=".47" stop-color="#DE1A26"/>
        </linearGradient>
        <linearGradient id="BONK__f" x1="4.55" x2="21.432" y1="6.223" y2="9.994" gradientUnits="userSpaceOnUse">
            <stop offset=".07" stop-color="#6C1A1C"/>
            <stop offset=".47" stop-color="#DE1A26"/>
        </linearGradient>
    </defs>
</svg>
